X:106G
T:Caroline's Fancy P49,No 106 William Clarke of Feltwell
O:Wm Clarke of Feltwell
Z:Anahata <anahata@treewind.co.uk>
M:4/4
L:1/8
K:Gmaj
(3DEF | G>DB>A G>DB>A | G>DB>G c>AF>D |\
G>D B>A G>D B>G | A>cF>A G2 :|
|: B>c | d>Bg>B d>Bg>d | d>Bg>B c>AA2 |\
d>Bg>B d>Bg>B | cedc BG GB/2c/2 |
d>Bg>B d>Bg>B |d>Bg>B cA Af |\
gfed edcB | A>cF>A G2 :|

